X: 171
T: Lord Loudon's Singling of a Troop
B: C. & S. Thompson, "The Compleat Tutor for the Fife" c.1760 p.17 #1
S: http://imslp.org/wiki/The_Compleat_Tutor_for_the_Fife_(Anonymous)
Z: 2014 John Chambers <jc:trillian.mit.edu>
M: 6/8
L: 1/8
K: G
% - - - - - - - - - - - - - - - - - - - - - - - - -
G//A//B//c// |\
d>BG e2d | d>BG A2D | d>BG e2d | d>BG A2 ::\
A>Bc B>cd | e>fg f>ed | g>fe d>BG | AGF G3 :|
% - - - - - - - - - - - - - - - - - - - - - - - - -

